X:171
T:Shooting
M:9/8
L:1/8
K:G
P:A
G2G BAG Bcd|AAA A2B c3 |G2G BAG BdB|GAB cAF G3||
P:B
d2c BAG Bcd|AAA A2B c3 |d2c BAG BdB|GAB cAF G3||

